assets/images/plus-circle-solid.svg

<svg width="14" height="14" viewBox="0 0 14 14" fill="none" xmlns="http://www.w3.org/2000/svg">
<path d="M11.6562 2.375C12.5104 3.20833 13.0833 4.1875 13.375 5.3125C13.6667 6.4375 13.6667 7.5625 13.375 8.6875C13.0833 9.8125 12.5104 10.8021 11.6562 11.6562C10.8229 12.4896 9.84375 13.0521 8.71875 13.3438C7.59375 13.6354 6.46875 13.6354 5.34375 13.3438C4.21875 13.0521 3.22917 12.4896 2.375 11.6562C1.54167 10.8021 0.979167 9.8125 0.6875 8.6875C0.395833 7.5625 0.395833 6.4375 0.6875 5.3125C0.979167 4.1875 1.54167 3.20833 2.375 2.375C3.22917 1.52083 4.21875 0.947917 5.34375 0.65625C6.46875 0.364583 7.59375 0.364583 8.71875 0.65625C9.84375 0.947917 10.8229 1.52083 11.6562 2.375ZM8.21875 11.4062V8.1875H11.4375V5.8125H8.21875V2.59375H5.84375V5.8125H2.625V8.1875H5.84375V11.4062H8.21875Z" fill="#2271B1"/>
</svg>

<svg width="14" height="14" fill="none" xmlns="http://www.w3.org/2000/svg"><path d="M11.656 2.375a6.22 6.22 0 0 1 1.719 2.938 6.618 6.618 0 0 1 0 3.375c-.292 1.124-.865 2.114-1.719 2.968a6.335 6.335 0 0 1-2.937 1.688 6.62 6.62 0 0 1-3.375 0 6.54 6.54 0 0 1-2.969-1.688A6.54 6.54 0 0 1 .687 8.687a6.618 6.618 0 0 1 0-3.374 6.336 6.336 0 0 1 1.688-2.938C3.229 1.521 4.219.948 5.344.656a6.618 6.618 0 0 1 3.375 0 6.22 6.22 0 0 1 2.937 1.719ZM8.22 11.406V8.187h3.219V5.813h-3.22v-3.22H5.845v3.22h-3.22v2.375h3.219v3.218h2.375Z" fill="#2271B1"/></svg>
